X:518
%%etbk:tnset id:248,pos:1,rep:3x,ant:
%%etbk:wsite http://thesession.org/tunes/1990
%%etbk:video src:ytube,cde:wovHOcbm-BQ,desc:
%%etbk:skill ?
%%etbk:pldat 2013-10-21T19:04,2013-10-20T14:51,2013-10-03T19:13,2013-10-02T15:07,2013-09-29T16:12,2013-09-26T14:23,2013-09-17T10:55,2013-09-16T15:10,2013-09-15T14:47,2013-09-11T19:27
T: Jenny Will You Marry Me?
Z: Piano Box Version by Martin Fleischmann
H: Created 2013-09-08 /  Last Modified 2013-09-09
R: strathspey
M: 4/4
L: 1/8
K: Gmaj
"G"!1!D2DE !3!GABA| "C"!3!G!2!EEE !5!c!2!EEE| "G"!1!D2DE !3!G!4!A!3!Bc|1 !5!dG!5!d!3!B "D"!2!(3ABA !1!G!2!E:|2 !5!d!5!e!4!d!3!B !2!(3ABA !1!G!3!B||
|:"G"!5!d2!3!dc !1!Bcd!5!f| "C"!4!e2ed !2!cdec| "G"!3!d2!5!dc !3!Bcd!3!B|1 !1!GABG !2!(3ABA GB:|2 !1!GABG (3ABA !1!G!2!E||
